assets/icons/chevronBackward.svg

<svg width="24" height="24" viewBox="0 0 24 24" fill="none" xmlns="http://www.w3.org/2000/svg">
<path d="M10.5454 12L16.3673 17.5964C16.6409 17.8595 16.7778 18.1943 16.7778 18.6009C16.7778 19.0075 16.6409 19.3423 16.3673 19.6054C16.0936 19.8685 15.7453 20 15.3223 20C14.8994 20 14.551 19.8685 14.2774 19.6054L7.41052 13.0045C7.26124 12.861 7.1555 12.7055 7.0933 12.5381C7.0311 12.3707 7 12.1913 7 12C7 11.8087 7.0311 11.6293 7.0933 11.4619C7.1555 11.2945 7.26124 11.139 7.41052 10.9955L14.2774 4.39462C14.551 4.13154 14.8994 4 15.3223 4C15.7453 4 16.0936 4.13154 16.3673 4.39462C16.6409 4.6577 16.7778 4.99253 16.7778 5.3991C16.7778 5.80568 16.6409 6.14051 16.3673 6.40359L10.5454 12Z" fill="black"/>
</svg>

<svg xmlns="http://www.w3.org/2000/svg" width="24" height="24" fill="none">
  <path fill="#000"
    d="m10.54 12 5.83 5.6c.27.26.4.6.4 1s-.13.74-.4 1c-.28.27-.63.4-1.05.4a1.4 1.4 0 0 1-1.04-.4L7.4 13a1.25 1.25 0 0 1-.32-.46A1.53 1.53 0 0 1 7 12a1.37 1.37 0 0 1 .41-1l6.87-6.6c.27-.27.62-.4 1.04-.4.42 0 .77.13 1.05.4.27.26.4.6.4 1s-.13.74-.4 1L10.54 12Z" />
</svg>
